src/assets/icons/ico-trash.svg

<svg width="25" height="24" viewBox="0 0 25 24" fill="none" xmlns="http://www.w3.org/2000/svg">
<path fill-rule="evenodd" clip-rule="evenodd" d="M9.90055 3.5935L9.734 4.58524C10.3081 4.56902 10.8822 4.5609 11.4563 4.5609C12.7279 4.5609 14.0009 4.5848 15.2736 4.63208L15.0989 3.59977C15.0133 3.07482 14.9591 2.88639 14.8597 2.77182C14.8047 2.70843 14.6129 2.53488 13.8405 2.53488H11.1596C10.3757 2.53488 10.1897 2.7036 10.1402 2.7598C10.0459 2.86669 9.99272 3.04627 9.90055 3.5935ZM8.38692 3.33894L8.1668 4.64968C7.21186 4.70123 6.25697 4.77522 5.30213 4.87165L3.21581 5.07619C2.79399 5.11755 2.48556 5.49303 2.52691 5.91485C2.56827 6.33667 2.94375 6.6451 3.36557 6.60375L5.45301 6.3991L5.45525 6.39888C7.4558 6.1968 9.4561 6.09578 11.4563 6.09578C14.848 6.09578 18.2506 6.26842 21.6336 6.60367C22.0554 6.64547 22.4312 6.33743 22.473 5.91565C22.5148 5.49387 22.2067 5.11807 21.7849 5.07627C20.141 4.91335 18.4921 4.78826 16.8417 4.70214C16.8407 4.69425 16.8394 4.68635 16.8381 4.67845L16.6134 3.35052L16.6038 3.29097C16.5365 2.87261 16.4357 2.24607 16.019 1.76585C15.5368 1.21018 14.7974 1 13.8405 1H11.1596C10.2142 1 9.47407 1.19454 8.98898 1.74461C8.57283 2.21652 8.46946 2.84083 8.39901 3.26638L8.38692 3.33894ZM20.275 9.12295C20.3023 8.69998 19.9815 8.33497 19.5586 8.30767C19.1356 8.28037 18.7706 8.60112 18.7433 9.02408L18.0785 19.324L18.0783 19.3261C18.0494 19.7383 18.025 20.0651 17.9676 20.35C17.9117 20.6274 17.8342 20.8097 17.734 20.9401C17.5612 21.165 17.1346 21.4651 15.7845 21.4651H9.2152C7.86508 21.4651 7.43845 21.165 7.2657 20.9401C7.16552 20.8097 7.08795 20.6274 7.03208 20.35C6.9747 20.0651 6.95026 19.7383 6.92138 19.3261L6.92124 19.324L6.2564 9.02408C6.2291 8.60112 5.86409 8.28037 5.44112 8.30767C5.01816 8.33497 4.69741 8.69998 4.72471 9.12295L5.38981 19.4271L5.39147 19.4508C5.41843 19.8358 5.44808 20.2591 5.52741 20.653C5.60967 21.0615 5.75466 21.4925 6.04844 21.875C6.66359 22.6759 7.71044 23 9.2152 23H15.7845C17.2892 23 18.3361 22.6759 18.9513 21.875C19.245 21.4925 19.39 21.0615 19.4723 20.653C19.5516 20.2591 19.5813 19.8358 19.6082 19.4508L19.6096 19.4313L20.275 9.12295ZM10.0237 16.6046C10.0237 16.1808 10.3673 15.8372 10.7912 15.8372H14.1986C14.6224 15.8372 14.966 16.1808 14.966 16.6046C14.966 17.0285 14.6224 17.3721 14.1986 17.3721H10.7912C10.3673 17.3721 10.0237 17.0285 10.0237 16.6046ZM9.94178 11.7442C9.51794 11.7442 9.17434 12.0878 9.17434 12.5116C9.17434 12.9355 9.51794 13.279 9.94178 13.279H15.0581C15.4819 13.279 15.8255 12.9355 15.8255 12.5116C15.8255 12.0878 15.4819 11.7442 15.0581 11.7442H9.94178Z" fill="#353B45"/>
</svg>

<svg width="25" height="24" fill="none" xmlns="http://www.w3.org/2000/svg"><path fill-rule="evenodd" clip-rule="evenodd" d="m9.9006 3.5935-.1666.9917a60.9814 60.9814 0 0 1 1.7223-.0243c1.2716 0 2.5446.0239 3.8173.0712l-.1747-1.0323c-.0856-.525-.1398-.7134-.2392-.828-.055-.0634-.2468-.237-1.0192-.237h-2.6809c-.7839 0-.9699.1688-1.0194.225-.0943.1069-.1475.2865-.2396.8337Zm-1.5137-.2546-.2201 1.3108a61.4977 61.4977 0 0 0-2.8647.222l-2.0863.2045a.7675.7675 0 0 0 .1498 1.5275l2.0874-.2046.0023-.0002a59.6736 59.6736 0 0 1 6.001-.3031c3.3917 0 6.7943.1726 10.1773.5079a.7674.7674 0 1 0 .1513-1.5274 106.3019 106.3019 0 0 0-4.9432-.3742.6486.6486 0 0 0-.0036-.0236l-.2247-1.328-.0096-.0595c-.0673-.4184-.1681-1.045-.5848-1.5252C15.5368 1.2102 14.7974 1 13.8405 1h-2.6809c-.9454 0-1.6855.1945-2.1706.7446-.4162.472-.5195 1.0962-.59 1.5218l-.012.0725ZM20.275 9.123a.7675.7675 0 0 0-1.5317-.0988l-.6648 10.2999-.0002.0021c-.0289.4122-.0533.739-.1107 1.0239-.0559.2774-.1334.4597-.2336.5901-.1728.2249-.5994.525-1.9495.525H9.2152c-1.3501 0-1.7767-.3001-1.9495-.525-.1002-.1304-.1777-.3127-.2336-.5901-.0574-.2849-.0818-.6117-.1107-1.0239l-.0002-.0021-.6648-10.3a.7674.7674 0 1 0-1.5317.099l.6651 10.3041.0017.0237c.027.385.0566.8083.136 1.2022.0822.4085.2272.8395.521 1.222.615.8009 1.662 1.125 3.1667 1.125h6.5693c1.5047 0 2.5516-.3241 3.1668-1.125.2937-.3825.4387-.8135.521-1.222.0793-.3939.109-.8172.1359-1.2022l.0014-.0195.6654-10.3084Zm-10.2513 7.4817a.7675.7675 0 0 1 .7675-.7674h3.4074a.7674.7674 0 0 1 0 1.5349h-3.4074a.7675.7675 0 0 1-.7675-.7675Zm-.082-4.8604a.7674.7674 0 1 0 0 1.5348h5.1164a.7674.7674 0 1 0 0-1.5348H9.9418Z" fill="#353B45"/></svg>
